X: 30851
T: Out Of The Mist
R: jig
M: 6/8
K: Adorian
|:D|EAB c3|~B3 AGE|GAB cdc|Aaa a2 b|
age ede|~g3 gab|age dcB|c~A2- A2:|
|:e|~a3 aba|ged e2 f|~g3 gab|age dcB|
cBc d2 f|ede gab|age dcB|c~A2- A2:|

